X:11
T:Kerry
M:2/4
L:1/16
K:G Major
G2B2 BcBA|G2B2 BcBA|F2A2 D3A|F2A2 D3A|!
G2B2 BcBA|G2B2 g3e|f2d2 c2A2|G4 G4:|!
g4 g3f|g2a2 a2g2|f2d2 d2de|f2g2 a2f2|!
g4 g3f|g2b2 a2g2|f2d2 c2A2|G4 G4:|!
